X: 1
T: Lord Of The Dance, The
M: 6/8
L: 1/8
R: jig
K: Amaj
|:A,2A AGA|BAG A3|A,2A AGA|FAE DEF|
A,2A AGA|BAG A2E|c3 cBc|cdB GFE:|
|:e3 edc|dcB c2E|e3edc|Bcd cBA|
e3 edc|dcB c3|EAA AGA|BcA GFE:|
